**kern	**kern	**dynam
*part1	*part1	*part1
*staff2	*staff1	*
*I"Piano	*	*
*clefF4	*clefG2	*
*k[]	*k[]	*
=1	=1	=1
8FL	4B 4d 4g 4b	.
8G	.	.
8E	8.cL 8.g 8.cc	.
8GJ	.	.
.	16cJk 16g 16cc	.
=	=	=
8BBL	4d 4g 4dd	.
8G	.	.
8C	4e 4g 4ee	.
8GJ	.	.
=	=	=
8r	[2f [2g [2b [2ff	.
(8GGGL	.	.
8DD	.	.
8GGJ	.	.
=	=	=
!	!LO:TX:a:i:t=legato	!LO:DY:a
8DL	2f] 2g] 2b] 2ff]	fz
8G	.	.
8B	.	.
8dJ	.	.
=	=	=
!	!	!LO:DY:a
8fL>	2ryy	>
8g>	.	.
8b>	.	.
8ddJ>	.	.
=	=	=
8ffL>	2ryy	.
8gg>	.	.
8bb>	.	.
8dddJ>)	.	]]
*clefG2	*	*
=	=	=
8r	4fff	.
!	!	!LO:DY:a
(8bL	.	pp
8ddJ)	8r	.
8r	(8ff 8gg	.
=	=	=
8r	4ddd)	.
(8g	.	.
[4dd)	8r	.
.	(8ff 8gg	.
=	=	=
8ddL]	4bb)	.
(8dJ	.	.
[4g)	8r	.
.	(8b 8ff	.
=	=	=
*-	*-	*-
!!!system-decoration: {(s1,s2)}
!!!RDF**kern: > = above
